!!!COM: Scriabin, Alexander
!!!OTL@@FR: Prélude en si bémol majeur
!!!OTL@@EN: Prelude in Bb Major
!!!OPR@@FR: 7 Préludes
!!!OPR@@EN: 7 Preludes
!!!OPS: 17
!!!ONM: 6
!!!ODT: 1895
!!!AGN: Prelude
**kern	**kern	**dynam
*staff2	*staff1	*staff1/2
*Ipiano	*Ipiano	*
*clefF4	*clefG2	*
*k[b-e-]	*k[b-e-]	*
*B-:	*B-:	*
*M6/8	*M6/8	*
*	*^	*
8B-	8f 8b-	8dd	.
=1	=1	=1	=1
*	*	*^	*
4.B-	8g-X\	4.cc	4ee-	.
.	4f\	.	.	.
.	.	.	8ee-	.
4.A	8g-\	4.cc	4ee-	.
.	4f\	.	.	.
.	.	.	8cc	.
=2	=2	=2	=2	=2
4.B-	8g-X\	4cc	[4.dd	.
.	4f\	.	.	.
.	.	8b-	.	.
4.E-	8g-\	4.b-	4dd]	.
.	4gn\	.	.	.
.	.	.	8b-	.
=3	=3	=3	=3	=3
4.A-X	4.e-\	8b-	4cc	.
.	.	4a-X	.	.
.	.	.	8cc	.
4.D 4.c	4.f#X\	8a-	4ee-	.
.	.	4an	.	.
.	.	.	8dd	.
*	*	*v	*v	*
=4	=4	=4	=4
4.E- 4.B-	8f#X	4dd	.
.	4g	.	.
.	.	8cc	.
4.F 4.e-	8a-X	4gg	.
.	4an	.	.
.	.	8ff	.
=5	=5	=5	=5
*	*	*^	*
4.B-	8g-X\	4.cc	4ee-	.
.	4f\	.	.	.
.	.	.	8ee-	.
4.A	8g-\	4.cc	4ee-	.
.	4f\	.	.	.
.	.	.	8cc	.
=6	=6	=6	=6	=6
4.B-	8g-X\	4cc	[4.dd	.
.	4f\	.	.	.
.	.	8b-	.	.
4.E-	8g-\	4.b-	4dd]	.
.	4gn\	.	.	.
.	.	.	8b-	.
=7	=7	=7	=7	=7
4.A-X	4.e-\	8b-	4cc	.
.	.	4a-X	.	.
.	.	.	8cc	.
4.D 4.c	4.f#X\	8a-	4ee-	.
.	.	4an	.	.
.	.	.	8dd	.
=8	=8	=8	=8	=8
2.G	8e-\	4a	4cc	.
.	4d\	.	.	.
.	.	8g	8b-	.
.	8e-\	4f#X	4a	.
.	4d\	.	.	.
.	.	8g	8b-	.
=9	=9	=9	=9	=9
4.En	4.d\	8a	4b-	.
.	.	4g	.	.
.	.	.	8g	.
*^	*	*	*	*
4.AA	4.G	4.c#X\	8e-XL	4b-	.
.	.	.	8enJ	.	.
.	.	.	8rc	8a	.
*	*	*	*v	*v	*
=10	=10	=10	=10	=10
4.BB-	8F	8c#X	4a	.
.	4En	4d	.	.
.	.	.	8g	.
4.B-	8f	8cc#X	4aa	.
.	4en	4dd	.	.
.	.	.	8gg	.
*v	*v	*	*	*
=11	=11	=11	=11
*	*	*^	*
4.Bn	4.a\	8een	4ff	.
.	.	4dd	.	.
.	.	.	8dd	.
*^	*	*	*	*
[4.En	4.d	4.g#X\	8b-X	4ff	.
.	.	.	4bn	.	.
.	.	.	.	8ee	.
=12	=12	=12	=12	=12	=12
4.E]	4.c	4.gn\	8dd	4een	.
.	.	.	4cc	.	.
.	.	.	.	8ee	.
4.F#X	4.en	4.a#X\	8cc	4gg	.
.	.	.	4cc#X	.	.
.	.	.	.	8ff#X	.
*	*	*	*v	*v	*
*v	*v	*	*	*
=13	=13	=13	=13
4.r	4.r	8r	.
.	.	8r	.
.	.	8gg-X	.
*^	*	*	*
4.c-X	4.e-	8cc-X	4gg-	.
.	.	4b-	.	.
.	.	.	8ee-	.
=14	=14	=14	=14	=14
4.cn	4.e-	8b-	4gg-X	.
.	.	4a	.	.
.	.	.	8ff	.
4F	4f	8a-XL	4ee-	.
.	.	8an	.	.
8B-	8f	8b-J	8dd	.
*v	*v	*	*	*
=15	=15	=15	=15
*	*	*^	*
4.B-	8g-X\	4.cc	4ee-	.
.	4f\	.	.	.
.	.	.	8ee-	.
4.A	8g-\	4.cc	4ee-	.
.	4f\	.	.	.
.	.	.	8cc	.
=16	=16	=16	=16	=16
4.B-	8g-X\	4cc	[4.dd	.
.	4f\	.	.	.
.	.	8b-	.	.
4.E-	8g-\	4.b-	4dd]	.
.	4gn\	.	.	.
.	.	.	8b-	.
=17	=17	=17	=17	=17
4.A-X	4.e-\	8b-	4cc	.
.	.	4a-X	.	.
.	.	.	8cc	.
4.D 4.c	4.f#X\	8a-	4ee-	.
.	.	4an	.	.
.	.	.	8dd	.
*	*	*v	*v	*
=18	=18	=18	=18
4.E- 4.B-	8f#X	4dd	.
.	4g	.	.
.	.	8cc	.
4.En 4.c#X	8f#	4ccn	.
.	4g	.	.
.	.	8b-	.
=19	=19	=19	=19
*^	*	*	*
2.F	4.d	8g-X	4b-	.
.	.	4f	.	.
.	.	.	8dd	.
.	4.e-	8g-	4dd	.
.	.	4gn	.	.
.	.	.	8b-	.
=20	=20	=20	=20	=20
2.F	4.d	8g-X	4b-	.
.	.	4f	.	.
.	.	.	8bb-	.
.	4.e-	8g-	4bb-	.
.	.	4gn	.	.
.	.	.	8b-	.
=21	=21	=21	=21	=21
2.F	4.d	8g-X	4b-	.
.	.	4f	.	.
.	.	.	8dd	.
.	4.en	4.gn 4.b-	4.dd	.
=22	=22	=22	=22	=22
[4.F	[4.e-X	[4.g-X [4.a	4.dd	.
4F]	4e-]	4g-] 4a]	4cc	.
*	*	*	*^	*
8BB-	8r	8d\	8f	8b-	.
=23	=23	=23	=23	=23	=23
2.BB-	4.G-X	8d\	8f	4b-	.
.	.	4c\	4e-	.	.
.	.	.	.	8a-X	.
.	4.F	8Bn\	8d	4a-	.
.	.	4c\	4e-	.	.
.	.	.	.	8an	.
=24	=24	=24	=24	=24	=24
2.BB-	4.B-	8e-\	4.f	4b-	.
.	.	4d\	.	.	.
.	.	.	.	8ff	.
*	*	*	*v	*v	*
.	4.F	4.re	8ffL	.
.	.	.	8fJ	.
.	.	.	8b-	.
=25	=25	=25	=25	=25
*	*	*	*^	*
[2.BB-	4.G-X	8d\	8f	4b-	.
.	.	4c\	4e-	.	.
.	.	.	.	8a-X	.
.	4.F	8Bn\	8d	4a-	.
.	.	4c\	4e-	.	.
.	.	.	.	8an	.
=26	=26	=26	=26	=26	=26
2.BB-_	4.B-	8e-\	4.f	4b-	.
.	.	4d\	.	.	.
.	.	.	.	8ff	.
*	*	*	*v	*v	*
.	4.F	4.re	8ffL	.
.	.	.	8fJ	.
.	.	.	8b-	.
=27	=27	=27	=27	=27
*	*	*	*^	*
4.BB-_	4.B-	8e-\	4.f	4b-	.
.	.	4d\	.	.	.
.	.	.	.	8ff	.
*	*	*	*v	*v	*
4BB-]	4F	4.re	8ffL	.
.	.	.	8fJ	.
*v	*v	*	*	*
8BB- 8F 8B-	.	8d 8b- 8dd	.
*	*v	*v	*
=28	=28	=28
8qBBB-	.	.
2.BB- 2.F 2.B-	2.d 2.b- 2.dd	.
==	==	==
*-	*-	*-
!!!system-decoration: {(*)}
!!!filter: flipper -a
!!!ENC: Bryan Jacob Bell
!!!END: November 2021 to April 2022
!!!PED: Konstantin Igumnov and Yakov Milstein
!!!PTL: A.N. Skryabin: Polnoe sobranie sochinenii dlia fortepiano (Muzgiz)
